pp/square_print.svg

<svg viewBox="0 0 20 20" fill="none" xmlns="http://www.w3.org/2000/svg" height="1em" width="1em">
  <g opacity="0.8">
    <path d="M8 7H16C16.2761 7 16.5 7.22386 16.5 7.5V15.5C16.5 15.7761 16.2761 16 16 16H8C7.72386 16 7.5 15.7761 7.5 15.5V7.5C7.5 7.22386 7.72386 7 8 7Z" fill="currentColor"/>
  </g>
  <path fill-rule="evenodd" clip-rule="evenodd" d="M14 5.5H6C5.72386 5.5 5.5 5.72386 5.5 6V14C5.5 14.2761 5.72386 14.5 6 14.5H14C14.2761 14.5 14.5 14.2761 14.5 14V6C14.5 5.72386 14.2761 5.5 14 5.5ZM6.5 13.5V6.5H13.5V13.5H6.5Z" fill="black"/>
</svg>

<svg viewBox="0 0 20 20" fill="none" xmlns="http://www.w3.org/2000/svg" height="1em" width="1em">
  <path d="M8 7h8a.5.5 0 0 1 .5.5v8a.5.5 0 0 1-.5.5H8a.5.5 0 0 1-.5-.5v-8A.5.5 0 0 1 8 7Z" fill="currentColor" opacity=".8"/>
  <path fill-rule="evenodd" clip-rule="evenodd" d="M14 5.5H6a.5.5 0 0 0-.5.5v8a.5.5 0 0 0 .5.5h8a.5.5 0 0 0 .5-.5V6a.5.5 0 0 0-.5-.5Zm-7.5 8v-7h7v7h-7Z" fill="#000"/>
</svg>
